img/cassette-export.svg

<svg width="19" height="18" viewBox="0 0 19 18" fill="none" xmlns="http://www.w3.org/2000/svg">
<path d="M13.8997 12C13.8997 11.5858 13.5639 11.25 13.1497 11.25C12.7354 11.25 12.3997 11.5858 12.3997 12C12.3997 12.4142 12.7354 12.75 13.1497 12.75C13.5639 12.75 13.8997 12.4142 13.8997 12Z" fill="white"/>
<path d="M5.64966 11.25C6.06387 11.25 6.39966 11.5858 6.39966 12C6.39966 12.4142 6.06387 12.75 5.64966 12.75C5.23544 12.75 4.89966 12.4142 4.89966 12C4.89966 11.5858 5.23544 11.25 5.64966 11.25Z" fill="white"/>
<path d="M11.6497 12.75V11.25H7.14966V12.75H11.6497Z" fill="white"/>
<path fill-rule="evenodd" clip-rule="evenodd" d="M17.6497 7.5C17.6497 6.67157 16.9781 6 16.1497 6H2.64966C1.82123 6 1.14966 6.67157 1.14966 7.5V16.5C1.14966 17.3284 1.82123 18 2.64966 18H16.1497C16.9781 18 17.6497 17.3284 17.6497 16.5V7.5ZM2.64966 7.5H16.1497V16.5H14.535L14.3689 15.5034C14.2484 14.7801 13.6226 14.25 12.8893 14.25H5.91C5.17674 14.25 4.55096 14.7801 4.43041 15.5034L4.26431 16.5H2.64966V7.5ZM12.8893 15.75H5.91L5.785 16.5H13.0143L12.8893 15.75Z" fill="white"/>
<path d="M9.39966 3.09099L8.64966 2.46967L6.17999 -2.68223e-06L5.11933 1.06066L9.39966 5.34099L13.68 1.06066L12.6193 -2.11928e-06L10.1497 2.46967L9.39966 3.09099Z" fill="white"/>
</svg>

<?xml version="1.0" encoding="UTF-8"?>
<svg id="Layer_1" xmlns="http://www.w3.org/2000/svg" version="1.1" viewBox="0 0 19 18">
  <!-- Generator: Adobe Illustrator 29.6.1, SVG Export Plug-In . SVG Version: 2.1.1 Build 9)  -->
  <defs>
    <style>
      .st0 {
        fill: #f8bbd6;
      }
    </style>
  </defs>
  <path class="st0" d="M13.9,12c0-.41-.34-.75-.75-.75s-.75.34-.75.75.34.75.75.75.75-.34.75-.75ZM5.65,11.25c.41,0,.75.34.75.75s-.34.75-.75.75-.75-.34-.75-.75.34-.75.75-.75ZM11.65,12.75v-1.5h-4.5v1.5h4.5ZM17.65,7.5c0-.83-.67-1.5-1.5-1.5H2.65c-.83,0-1.5.67-1.5,1.5v9c0,.83.67,1.5,1.5,1.5h13.5c.83,0,1.5-.67,1.5-1.5V7.5ZM2.65,7.5h13.5v9h-1.61l-.17-1c-.12-.72-.75-1.25-1.48-1.25h-6.98c-.73,0-1.36.53-1.48,1.25l-.17,1h-1.61V7.5ZM13.01,16.5h-7.23l.12-.75h6.98l.12.75ZM9.4,3.09l-.75-.62L6.18,0l-1.06,1.06,4.28,4.28L13.68,1.06,12.62,0l-2.47,2.47-.75.62Z"/>
</svg>
